X: 25487
T: Marcos Llope
R: jig
M: 6/8
K: Dmajor
|:DFG FGd|dAF D2d|cAE G2F|DE/F/G AFD|
DFG FGd|dAF D2A|G2g fAd|1 eef dAF:|2 eef zdc||
|:BGD cd(f|{g}f)dA def|eB/c/d efa|f2e- edc|
BGD cd(f|{g}f)dA d3|AB/c/d gfd-|1 d3 -ddc:|2 d3 dzz||

